X:6943
T:Hearty Boys of Ballymote Jig
M:6/8
L:1/8
K:A
A/B/|cAA EAA|c3 ABd|cAA EAA|BAG A3/2B3/2|!
cAA EAA|c3 ABd|ceg aec|dBG A2:|!
|:e/g/|a2 a agf|ecA Ace|ebb bab|gee efg|!
a3 agf|ecA Ace|fdB GBG|EFG A2:|!
